svgs/sharp-light/calendar-heart.svg

<svg xmlns="http://www.w3.org/2000/svg" viewBox="0 0 448 512"><!--! Font Awesome Pro 6.6.0 by @fontawesome - https://fontawesome.com License - https://fontawesome.com/license (Commercial License) Copyright 2024 Fonticons, Inc. --><path d="M128 16l0-16L96 0l0 16 0 48L32 64 0 64 0 96l0 64 0 32L0 480l0 32 32 0 384 0 32 0 0-32 0-288 0-32 0-64 0-32-32 0-64 0 0-48 0-16L320 0l0 16 0 48L128 64l0-48zM32 192l384 0 0 288L32 480l0-288zm0-96l384 0 0 64L32 160l0-64zM216.3 257.2c-11.5-11-26.8-17.2-42.7-17.2l-2.4 0c-32.7 0-59.2 26.5-59.2 59.2c0 16.1 6.6 31.5 18.2 42.7l82.8 79.6L224 432.1l11.1-10.7 82.8-79.6c11.6-11.2 18.2-26.6 18.2-42.7c0-32.7-26.5-59.2-59.2-59.2l-2.4 0c-15.9 0-31.2 6.2-42.7 17.2l-7.7 7.4-7.7-7.4zm79.3 61.6L224 387.7l-71.7-68.9c-5.3-5.1-8.3-12.2-8.3-19.6c0-15 12.2-27.2 27.2-27.2l2.4 0c7.7 0 15 3 20.5 8.3l7.7 7.4L224 309l22.2-21.3 7.7-7.4c5.5-5.3 12.9-8.3 20.5-8.3l2.4 0c15 0 27.2 12.2 27.2 27.2c0 7.4-3 14.5-8.3 19.6z"/></svg>

<svg xmlns="http://www.w3.org/2000/svg" viewBox="0 0 448 512"><!--! Font Awesome Pro 6.4.2 by @fontawesome - https://fontawesome.com License - https://fontawesome.com/license (Commercial License) Copyright 2023 Fonticons, Inc. --><path d="M128 16V0H96V16 64H32 0V96v64 32V480v32H32 416h32V480 192 160 96 64H416 352V16 0H320V16 64H128V16zM32 192H416V480H32V192zm0-96H416v64H32V96zM216.3 257.2c-11.5-11-26.8-17.2-42.7-17.2h-2.4c-32.7 0-59.2 26.5-59.2 59.2c0 16.1 6.6 31.5 18.2 42.7l82.8 79.6L224 432.1l11.1-10.7 82.8-79.6c11.6-11.2 18.2-26.6 18.2-42.7c0-32.7-26.5-59.2-59.2-59.2h-2.4c-15.9 0-31.2 6.2-42.7 17.2l-7.7 7.4-7.7-7.4zm79.3 61.6L224 387.7l-71.7-68.9c-5.3-5.1-8.3-12.2-8.3-19.6c0-15 12.2-27.2 27.2-27.2h2.4c7.7 0 15 3 20.5 8.3l7.7 7.4L224 309l22.2-21.3 7.7-7.4c5.5-5.3 12.9-8.3 20.5-8.3h2.4c15 0 27.2 12.2 27.2 27.2c0 7.4-3 14.5-8.3 19.6z"/></svg>
